src/assets/images/icons/usa_flag.svg

<svg width="512" height="512" viewBox="0 0 512 512" fill="none" xmlns="http://www.w3.org/2000/svg">
<path d="M32 96H480V416H32V96Z" fill="#E92B2B"></path>
<path d="M32 336H480V376H32V336Z" fill="#FBFBFB"></path>
<path d="M32 256H480V296H32V256Z" fill="#FBFBFB"></path>
<path d="M32 176H480V216H32V176Z" fill="#FBFBFB"></path>
<path d="M32 96H480V136H32V96Z" fill="#FBFBFB"></path>
<path d="M32 96H240V256H32V96Z" fill="#2A2FAF"></path>
<path d="M63.9982 112L67.5904 123.056H79.2151L69.8105 129.889L73.4027 140.944L63.9982 134.111L54.5936 140.944L58.1858 129.889L48.7812 123.056H60.4059L63.9982 112Z" fill="#FBFBFB"></path>
<path d="M63.9982 160L67.5904 171.056H79.2151L69.8105 177.889L73.4027 188.944L63.9982 182.111L54.5936 188.944L58.1858 177.889L48.7812 171.056H60.4059L63.9982 160Z" fill="#FBFBFB"></path>
<path d="M63.9982 208L67.5904 219.056H79.2151L69.8105 225.889L73.4027 236.944L63.9982 230.111L54.5936 236.944L58.1858 225.889L48.7812 219.056H60.4059L63.9982 208Z" fill="#FBFBFB"></path>
<path d="M111.998 112L115.59 123.056H127.215L117.81 129.889L121.403 140.944L111.998 134.111L102.594 140.944L106.186 129.889L96.7812 123.056H108.406L111.998 112Z" fill="#FBFBFB"></path>
<path d="M111.998 160L115.59 171.056H127.215L117.81 177.889L121.403 188.944L111.998 182.111L102.594 188.944L106.186 177.889L96.7812 171.056H108.406L111.998 160Z" fill="#FBFBFB"></path>
<path d="M111.998 208L115.59 219.056H127.215L117.81 225.889L121.403 236.944L111.998 230.111L102.594 236.944L106.186 225.889L96.7812 219.056H108.406L111.998 208Z" fill="#FBFBFB"></path>
<path d="M159.998 112L163.59 123.056H175.215L165.81 129.889L169.403 140.944L159.998 134.111L150.594 140.944L154.186 129.889L144.781 123.056H156.406L159.998 112Z" fill="#FBFBFB"></path>
<path d="M159.998 160L163.59 171.056H175.215L165.81 177.889L169.403 188.944L159.998 182.111L150.594 188.944L154.186 177.889L144.781 171.056H156.406L159.998 160Z" fill="#FBFBFB"></path>
<path d="M159.998 208L163.59 219.056H175.215L165.81 225.889L169.403 236.944L159.998 230.111L150.594 236.944L154.186 225.889L144.781 219.056H156.406L159.998 208Z" fill="#FBFBFB"></path>
<path d="M207.998 112L211.59 123.056H223.215L213.81 129.889L217.403 140.944L207.998 134.111L198.594 140.944L202.186 129.889L192.781 123.056H204.406L207.998 112Z" fill="#FBFBFB"></path>
<path d="M207.998 160L211.59 171.056H223.215L213.81 177.889L217.403 188.944L207.998 182.111L198.594 188.944L202.186 177.889L192.781 171.056H204.406L207.998 160Z" fill="#FBFBFB"></path>
<path d="M207.998 208L211.59 219.056H223.215L213.81 225.889L217.403 236.944L207.998 230.111L198.594 236.944L202.186 225.889L192.781 219.056H204.406L207.998 208Z" fill="#FBFBFB"></path>
</svg>

<svg xmlns="http://www.w3.org/2000/svg" width="512" height="512" fill="none"><path fill="#E92B2B" d="M32 96h448v320H32z"/><path fill="#FBFBFB" d="M32 336h448v40H32zM32 256h448v40H32zM32 176h448v40H32zM32 96h448v40H32z"/><path fill="#2A2FAF" d="M32 96h208v160H32z"/><path fill="#FBFBFB" d="m63.998 112 3.592 11.056h11.625l-9.404 6.833 3.592 11.055-9.405-6.833-9.404 6.833 3.592-11.055-9.405-6.833h11.625zM63.998 160l3.592 11.056h11.625l-9.404 6.833 3.592 11.055-9.405-6.833-9.404 6.833 3.592-11.055-9.405-6.833h11.625zM63.998 208l3.592 11.056h11.625l-9.404 6.833 3.592 11.055-9.405-6.833-9.404 6.833 3.592-11.055-9.405-6.833h11.625zM111.998 112l3.592 11.056h11.625l-9.405 6.833 3.593 11.055-9.405-6.833-9.404 6.833 3.592-11.055-9.405-6.833h11.625zM111.998 160l3.592 11.056h11.625l-9.405 6.833 3.593 11.055-9.405-6.833-9.404 6.833 3.592-11.055-9.405-6.833h11.625zM111.998 208l3.592 11.056h11.625l-9.405 6.833 3.593 11.055-9.405-6.833-9.404 6.833 3.592-11.055-9.405-6.833h11.625zM159.998 112l3.592 11.056h11.625l-9.405 6.833 3.593 11.055-9.405-6.833-9.404 6.833 3.592-11.055-9.405-6.833h11.625zM159.998 160l3.592 11.056h11.625l-9.405 6.833 3.593 11.055-9.405-6.833-9.404 6.833 3.592-11.055-9.405-6.833h11.625zM159.998 208l3.592 11.056h11.625l-9.405 6.833 3.593 11.055-9.405-6.833-9.404 6.833 3.592-11.055-9.405-6.833h11.625zM207.998 112l3.592 11.056h11.625l-9.405 6.833 3.593 11.055-9.405-6.833-9.404 6.833 3.592-11.055-9.405-6.833h11.625zM207.998 160l3.592 11.056h11.625l-9.405 6.833 3.593 11.055-9.405-6.833-9.404 6.833 3.592-11.055-9.405-6.833h11.625zM207.998 208l3.592 11.056h11.625l-9.405 6.833 3.593 11.055-9.405-6.833-9.404 6.833 3.592-11.055-9.405-6.833h11.625z"/></svg>
